X: 7132
T: Christmas, The
R: polka
M: 2/4
K: Dmajor
|:fd AF|GB B/A/G|FA de/f/|gf ed/e/
fd AF|GB A>G|FA de/f/|ed d>e:|
|:fa af|ga b>a|fa d>e|fe ed/e/|
f>g ad|g>a (3b/c’/b/ a/g/|fa e/f/g/e/|fd d2:|

